modules/themify-icons/icons/clipboard.svg

<?xml version="1.0" encoding="utf-8"?>
<!-- Generated by IcoMoon.io -->
<!DOCTYPE svg PUBLIC "-//W3C//DTD SVG 1.1//EN" "http://www.w3.org/Graphics/SVG/1.1/DTD/svg11.dtd">
<svg version="1.1" xmlns="http://www.w3.org/2000/svg" xmlns:xlink="http://www.w3.org/1999/xlink" width="17" height="17" viewBox="0 0 17 17">
<g>
</g>
	<path d="M16 2v15h-15v-15h2.244v1h-1.244v13h13v-13h-1.278v-1h2.278zM13 5h-9v-4h3.085c0.207-0.582 0.763-1 1.415-1s1.208 0.418 1.415 1h3.085v4zM12 2h-3v-0.5c0-0.276-0.224-0.5-0.5-0.5s-0.5 0.224-0.5 0.5v0.5h-3v2h7v-2z" fill="#000000" />
</svg>

<svg xmlns="http://www.w3.org/2000/svg" width="17" height="17" viewBox="0 0 17 17"><path d="M16 2v15H1V2h2.244v1H2v13h13V3h-1.278V2H16zm-3 3H4V1h3.085c.207-.582.763-1 1.415-1s1.208.418 1.415 1H13v4zm-1-3H9v-.5a.5.5 0 00-1 0V2H5v2h7V2z"/></svg>
